X:1
T:Ragging Csikós Post
T:Ragging Csikós Post
T:Hermann Necke
T:Arr. by Dekkadeci
C:Hermann Necke
Z:Arr. by Dekkadeci
%%score { 1 | 2 }
L:1/8
Q:1/4=100
M:2/4
K:G
V:1 treble nm="Piano" snm="Pno."
V:2 bass 
V:1
"^Allegretto ma con brio"!f! b/f/b/b/- b/g/b/b/- | b/B/^d/f/ b/bb/ |!>(!{/^d'} !^![ee'] z z2 | %3
 z4!>)! |:!mp! .ee/f/ g/f/g/b/ | c'/e'b/- b2 |!<(! a/f/c'/g/- g/e/b/f/- | %7
 f/^d/b/!<)!!mf!g/-!>(! g/f/e/d/!>)! |!mp! .ee/f/ g/f/g/b/ | c'/e'b/- b2 | %10
!<(! b/^a/b/^c'/ [dd']/c'/[dd']/e'/!<)! |!f!!8va(! [ff']/^c'/f'/!8va)![Bb]/ z/!>(! .[Bb]B/!>)! :: %12
!mf! [egb]/B/[egb]/B/ [egb]/B/[egb]/B/ | [eac']/c/[eac']/c/ [eac']/c/[eac']/c/ | %14
!p! .[^db][db]/^c'/ [f^d']/b/!8va(!f'/[ge']/ | z/ b/[ge']/f'/ [bg']/e'/[e'b']/e'/!8va)! | %16
!f! [egb]/B/[egb]/B/ [egb]/B/[egb]/B/ | [eac']/c/[eac']/c/ [eac']/c/[eac']/c/ | %18
!mf! [gb]/!<(!e'/b/[eg]/- [eg]/b/[ge']/!8va(!g'/ | %19
 [bf']/b'/[b^d']/f'/!<)!!8va)!!f! .[ge']!^![egbe']!dacoda! :| %20
[K:C]!ff!!8va(! [bd'g']/!>(!g/[ac'^f']/^f/ [ac'=f']/=f/[gc'e']/e/!8va)! | %21
 [gbd']/d/[^fac']/c/ [dgb]/B/[dfa]/A/!>)! |:!p! [Gg]/!<(!a/b/[dd']/- [dd']/c'/b/[cc']/- | %23
 [cc']/d'/e'/!8va(![gg']/- [gg']/f'/e'/!<)!!mf![ff']/- | [ff']/a'/[dd']/f'/!8va)! [Bb]/d'/[Gg]/b/ | %25
 [cc']/e'/[Gg]/c'/ [Ee]/g/[Cc]/e/ |!p! [Gg]/!<(!a/b/[dd']/- [dd']/c'/b/[cc']/- | %27
 [cc']/d'/e'/!8va(![gg']/- [gg']/f'/e'/!<)!!f![gg']/- | [gg']/b'/[ee']/g'/!8va)! [Bb]/e'/[Gg]/b/ | %29
!8va(! [^f^f']/b'/[^d^d']/f'/ .[ee']!^![e'g'b'e'']!8va)! ::!f! [ec']/g/e/g/ [ec']/g/e/g/ | %31
 [fd']/a/f/a/ [fd']/a/f/a/ |!p! !>!a/d/_e/=e/ f/d/a/!>!g/- | g/c/d/^d/ e/c/g/c/ | %34
!f! [ec']/g/e/g/ [ec']/g/e/g/ | [fd']/a/f/a/ [fd']/a/f/a/ | %36
!mf! !>!c'/!<(!b/a/!>!g/- g/c'/e'/!8va(!g'/ | .a'!8va)!.[fb]!<)!!f! .[ec']!^![cegc']!D.C.! :| %38
[K:G]O!ff! !tenuto!.[cefc'] z !tenuto!.[B^dfb] z | !^![egbe'] z z2 |] %40
V:2
 B,,,[^D,F,B,] B,,,[E,G,B,] | B,,,/B,/F,/^D,/ B,,,/[D,F,B,][D,F,B,]/ | E,,[E,G,B,] B,,,[E,G,B,] | %3
 E,,[E,G,B,] B,,,[E,G,B,] |: E,,[E,G,B,] E,,[E,G,B,] | A,,[E,A,C] E,,[E,G,B,] | %6
 A,,[E,F,A,] B,,[E,G,B,] | B,,,[^D,F,A,] E,,[E,G,B,] | E,,[E,G,B,] E,,[E,G,B,] | %9
 A,,[E,A,C] E,,[E,G,B,] | F,,[D,F,B,] F,,[D,F,B,] | F,,[^C,F,^A,] B,,,[^D,F,B,] :: %12
 .[E,,E,].[G,,G,] [B,,B,]>[A,,A,] | z/ .[C,C][E,E]/- [E,E]/D/C/A,/ | ^D,[F,A,B,] B,,[F,A,B,] | %15
 E,[E,G,B,] B,,[E,G,B,] | .[E,,E,].[G,,G,] [B,,B,]>[A,,A,] | z/ .[C,C][E,E]/- [E,E]/D/C/A,/ | %18
 B,,[E,G,B,] B,,[E,G,B,] | B,,[^D,F,B,] .E,,!^![E,,G,,B,,E,] :| %20
[K:C] [G,,G,][^F,,^F,] [=F,,=F,][E,,E,] | [D,,D,][C,,C,] [B,,,B,,]!8vb(![A,,,A,,] |: %22
 [G,,,G,,]!8vb)![D,F,G,] G,,[D,F,G,] | [C,,C,][E,G,] C,[E,G,] | [B,,,B,,][D,F,G,] G,,[D,F,G,] | %25
 [C,,C,][E,G,] G,,[E,G,] |!8vb(! [G,,,G,,]!8vb)![D,F,G,] G,,[D,F,G,] | [C,,C,][E,G,] C,[E,G,] | %28
 [B,,,B,,][E,G,] B,,[E,G,] | [B,,,B,,][^D,^F,] .[E,,E,]!8vb(!!^![E,,,B,,,E,,]!8vb)! :: %30
 !>![C,C]/C,/!>!B,/!>![A,,A,]/- [A,,A,]/A,,/!>!G,/!>![F,,F,]/- | %31
 [F,,F,]/F,,/!>!E,/!>![D,,D,]/- [D,,D,]2 | G,,[F,G,B,] G,,[F,G,B,] | C,[E,G,C] C,[E,G,C] | %34
 !>![C,C]/C,/!>!B,/!>![A,,A,]/- [A,,A,]/A,,/!>!G,/!>![F,,F,]/- | %35
 [F,,F,]/F,,/!>!E,/!>![D,,D,]/- [D,,D,]2 | ^F,,[C,_E,^F,] G,,[C,=E,G,] | %37
 G,,.[G,,B,,F,G,] .C,!^![C,,G,,C,] :|[K:G] C,!tenuto!.[C,,F,,C,] B,,!tenuto!.[B,,,F,,B,,] | %39
 E,!tenuto!.[E,,G,,B,,] !^![E,,G,,B,,E,] z |] %40

